doc/_static/funding/czi.svg

<?xml version="1.0" encoding="UTF-8"?>
<svg width="192px" height="192px" viewBox="0 0 192 192" version="1.1" xmlns="http://www.w3.org/2000/svg" xmlns:xlink="http://www.w3.org/1999/xlink">
    <!-- Generator: Sketch 52.2 (67145) - http://www.bohemiancoding.com/sketch -->
    <title>nav / elements / czi_mark_red</title>
    <desc>Created with Sketch.</desc>
    <defs>
        <polygon id="path-1" points="0 0 192 0 192 192 0 192"/>
    </defs>
    <g id="nav-/-elements-/-czi_mark_red" stroke="none" stroke-width="1" fill="none" fill-rule="evenodd">
        <g id="czi_mark">
            <mask id="mask-2" fill="white">
                <use xlink:href="#path-1"/>
            </mask>
            <g id="Clip-2"/>
            <path d="M69.7933712,96.0856792 C56.904554,96.3514262 47.2394287,87.8624926 46.342904,75.3156235 C45.8651731,68.644557 48.110735,62.2697375 52.6627795,57.388862 C57.219641,52.500079 63.427876,49.7657946 70.1438772,49.71016 C73.5426804,49.6796598 77.1369963,50.3684555 80.213062,51.6949308 C80.213062,51.6949308 79.3749077,58.7000872 79.0980732,61.8545962 L89.6903251,61.9153142 L91.5927482,46.1405096 L88.6107553,44.259383 C83.0403449,40.8543771 76.6238464,39.0543018 70.0475376,39.1124781 C60.4838522,39.1960712 51.2757731,43.2215297 44.7856033,50.1809359 C38.201644,57.2442685 34.9578341,66.424257 35.6463786,76.0473453 C36.2558681,84.5890893 39.9417065,92.3790605 46.0178996,97.9919403 C52.1725812,103.677964 60.4583506,106.741255 69.4148134,106.665287 C69.6332775,106.663028 69.8542918,106.657662 70.0753061,106.650319 C75.5060241,106.50855 81.6227365,105.483123 88.354322,102.824806 L96,88.0373038 C96,88.0373038 95.8450066,87.6955889 94.7606198,88.4473617 C88.1840277,93.0068558 80.4898965,95.8651178 69.7933712,96.0856792 Z" id="Fill-1" fill="#FF414B" mask="url(#mask-2)"/>
            <path d="M128.264258,140.830158 C127.731065,146.452835 124.81253,151.094434 120.437535,153.404009 C116.963637,155.237918 113.167297,155.227815 109.745876,153.371175 C106.186106,151.433995 104.498127,148.533417 103.864188,144.868125 C102.862906,139.054059 106.168707,132.991356 110.67195,129.934748 L181.049041,84.1510133 C181.585041,88.0250929 181.869318,91.9799935 181.869318,96 C181.869318,143.38388 143.348592,181.932164 95.9998597,181.932164 C48.6516891,181.932164 10.1309628,143.38388 10.1309628,96 C10.1309628,48.616401 48.6516891,10.0655911 95.9998597,10.0655911 C131.406173,10.0655911 161.85659,31.6327505 174.973438,62.3195017 L183.562348,56.7394801 C168.526003,23.330911 134.948264,0 95.9998597,0 C43.0640987,0 0,43.0641617 0,96 C0,148.933313 43.0640987,192 95.9998597,192 C148.933376,192 192,148.933313 192,96 C192,89.8893095 191.418819,83.9121983 190.322123,78.115812 C189.660402,74.3219922 188.211237,69.2931255 187.972422,68.477899 L167.980181,80.9835569 L141.509354,97.7435463 C140.575984,94.2213751 138.445173,90.6540228 133.924531,88.6012237 C128.571266,86.1709789 119.901815,88.0427725 113.539691,91.6603574 C113.539691,91.6603574 130.963622,57.9473061 133.854094,52.4051694 C134.042957,52.0454034 133.77636,51.6202509 133.368607,51.6227765 L132.299413,51.6328792 L100.784853,51.6076226 L99.4768445,62.5030328 L104.405239,62.4856339 L117.132014,62.4856339 L92.1861209,110.251449 C91.7006339,111.182575 92.706967,112.183578 93.6428625,111.700616 L106.95587,104.624001 C113.383661,101.326053 124.083177,94.5586909 129.373582,98.473181 C130.143346,99.0414541 131.129473,100.545905 131.192615,102.123599 C131.220116,102.734528 130.910864,103.318236 130.39984,103.660322 L103.841457,121.605126 C95.2152229,127.771101 91.8415093,136.945976 92.6415806,145.600005 C93.3105985,152.875585 97.8390977,159.144831 104.560988,162.797775 C108.085679,164.71475 111.899418,165.617532 115.708386,165.512016 C119.048986,165.418847 122.385095,164.546092 125.514381,162.893189 C133.086856,158.890862 138.125818,151.11464 139.001378,142.078114 L141.139766,117.778753 L129.537188,126.397704 L128.264258,140.830158 Z" id="Fill-3" fill="#FF414B" mask="url(#mask-2)"/>
        </g>
    </g>
</svg>

<svg width="192" height="192" xmlns="http://www.w3.org/2000/svg" xmlns:xlink="http://www.w3.org/1999/xlink">
  <defs>
    <path id="a" d="M0 0h192v192H0z"/>
  </defs>
  <g fill="none" fill-rule="evenodd">
    <mask id="b" fill="#fff">
      <use xlink:href="#a"/>
    </mask>
    <path d="M69.793 96.086c-12.888.265-22.554-8.224-23.45-20.77-.478-6.671 1.768-13.046 6.32-17.927 4.557-4.889 10.765-7.623 17.48-7.679 3.4-.03 6.994.658 10.07 1.985 0 0-.838 7.005-1.115 10.16l10.592.06 1.903-15.774-2.982-1.882a34.978 34.978 0 0 0-18.563-5.147c-9.564.084-18.772 4.11-25.262 11.069-6.584 7.063-9.828 16.243-9.14 25.866.61 8.542 4.296 16.332 10.372 21.945 6.155 5.686 14.44 8.75 23.397 8.673.218-.002.44-.007.66-.015 5.431-.141 11.548-1.167 18.28-3.825L96 88.037s-.155-.341-1.24.41c-6.576 4.56-14.27 7.418-24.967 7.639Z" fill="#FF414B" mask="url(#b)"/>
    <path d="M128.264 140.83c-.533 5.623-3.451 10.264-7.826 12.574-3.474 1.834-7.27 1.824-10.692-.033-3.56-1.937-5.248-4.838-5.882-8.503-1.001-5.814 2.305-11.877 6.808-14.933l70.377-45.784c.536 3.874.82 7.829.82 11.849 0 47.384-38.52 85.932-85.87 85.932-47.347 0-85.868-38.548-85.868-85.932S48.651 10.066 96 10.066c35.406 0 65.857 21.567 78.973 52.254l8.59-5.58C168.525 23.33 134.947 0 96 0 43.064 0 0 43.064 0 96c0 52.933 43.064 96 96 96 52.933 0 96-43.067 96-96a96.1 96.1 0 0 0-1.678-17.884c-.662-3.794-2.11-8.823-2.35-9.638L167.98 80.984l-26.47 16.76c-.934-3.523-3.065-7.09-7.585-9.143-5.354-2.43-14.023-.558-20.385 3.06 0 0 17.424-33.714 20.314-39.256a.536.536 0 0 0-.485-.782l-1.07.01-31.514-.025-1.308 10.895 4.928-.017h12.727L92.186 110.25c-.485.932.521 1.933 1.457 1.45l13.313-7.077c6.428-3.298 17.127-10.065 22.418-6.15.77.567 1.755 2.072 1.819 3.65a1.769 1.769 0 0 1-.793 1.536l-26.559 17.945c-8.626 6.166-12 15.341-11.2 23.995.67 7.276 5.198 13.545 11.92 17.198 3.525 1.917 7.338 2.82 11.147 2.714 3.341-.093 6.677-.966 9.806-2.619 7.573-4.002 12.612-11.778 13.487-20.815l2.139-24.3-11.603 8.62-1.273 14.432Z" fill="#FF414B" mask="url(#b)"/>
  </g>
</svg>
